.icons/Gruvbox-Plus-Dark/apps/16/total-war.svg

<svg width="16" height="16" version="1.1" xmlns="http://www.w3.org/2000/svg">
  <defs>
    <style type="text/css" id="current-color-scheme">.ColorScheme-Text { color:#ebdbb2; } .ColorScheme-Highlight { color:#458588; }</style>
  </defs>
  <path class="ColorScheme-Text" fill="currentColor" d="m8 1.231c-0.569 0-1.064 0.39-1.196 0.943-0.133 0.554 0.131 1.126 0.638 1.384l-2.519 5.057-2.75-2.288c0.186-0.221 0.288-0.5 0.289-0.789 0-0.679-0.551-1.23-1.231-1.23s-1.231 0.551-1.231 1.23c0 0.68 0.551 1.231 1.231 1.231 0.084 0 0.17-2e-3 0.25-0.019l1.038 4.942h10.96l1.038-4.942c0.08 0.017 0.167 0.019 0.25 0.019 0.68 0 1.231-0.551 1.231-1.231 0-0.679-0.551-1.23-1.231-1.23s-1.231 0.551-1.231 1.23c1e-3 0.289 0.103 0.568 0.289 0.789l-2.75 2.288-2.519-5.057c0.507-0.258 0.771-0.83 0.638-1.384-0.132-0.553-0.627-0.943-1.196-0.943zm-5.538 11.69v0.923c0 0.51 0.413 0.923 0.923 0.923h9.23c0.51 0 0.923-0.413 0.923-0.923v-0.923h-11.08z"/>
</svg>

<svg xmlns="http://www.w3.org/2000/svg" style="isolation:isolate" width="16" height="16" viewBox="0 0 16 16">
 <defs>
  <style id="current-color-scheme" type="text/css">
   .ColorScheme-Text { color:#ebdbb2; } .ColorScheme-Highlight { color:#458588; }
  </style>
  <linearGradient id="arrongin" x1="0%" x2="0%" y1="0%" y2="100%">
   <stop offset="0%" style="stop-color:#d79921; stop-opacity:1"/>
   <stop offset="100%" style="stop-color:#b57614; stop-opacity:1"/>
  </linearGradient>
  <linearGradient id="aurora" x1="0%" x2="0%" y1="0%" y2="100%">
   <stop offset="0%" style="stop-color:#83a598; stop-opacity:1"/>
   <stop offset="100%" style="stop-color:#b16286; stop-opacity:1"/>
  </linearGradient>
  <linearGradient id="fitdance" x1="0%" x2="0%" y1="0%" y2="100%">
   <stop offset="0%" style="stop-color:#8ec07c; stop-opacity:1"/>
   <stop offset="100%" style="stop-color:#458588; stop-opacity:1"/>
  </linearGradient>
  <linearGradient id="oomox" x1="0%" x2="0%" y1="0%" y2="100%">
   <stop offset="0%" style="stop-color:#458588; stop-opacity:1"/>
   <stop offset="100%" style="stop-color:#928374; stop-opacity:1"/>
  </linearGradient>
  <linearGradient id="rainblue" x1="0%" x2="0%" y1="0%" y2="100%">
   <stop offset="0%" style="stop-color:#b8bb26; stop-opacity:1"/>
   <stop offset="100%" style="stop-color:#076678; stop-opacity:1"/>
  </linearGradient>
  <linearGradient id="sunrise" x1="0%" x2="0%" y1="0%" y2="100%">
   <stop offset="0%" style="stop-color: #fe8019; stop-opacity:1"/>
   <stop offset="100%" style="stop-color: #fabd2f; stop-opacity:1"/>
  </linearGradient>
  <linearGradient id="telinkrin" x1="0%" x2="0%" y1="0%" y2="100%">
   <stop offset="0%" style="stop-color: #83a598; stop-opacity:1"/>
   <stop offset="100%" style="stop-color: #83a598; stop-opacity:1"/>
  </linearGradient>
  <linearGradient id="60spsycho" x1="0%" x2="0%" y1="0%" y2="100%">
   <stop offset="0%" style="stop-color: #fb4934; stop-opacity:1"/>
   <stop offset="25%" style="stop-color: #fabd2f; stop-opacity:1"/>
   <stop offset="50%" style="stop-color: #fe8019; stop-opacity:1"/>
   <stop offset="100%" style="stop-color: #689d6a; stop-opacity:1"/>
  </linearGradient>
  <linearGradient id="90ssummer" x1="0%" x2="0%" y1="0%" y2="100%">
   <stop offset="0%" style="stop-color: #b16286; stop-opacity:1"/>
   <stop offset="20%" style="stop-color: #8ec07c; stop-opacity:1"/>
   <stop offset="50%" style="stop-color: #fabd2f; stop-opacity:1"/>
   <stop offset="100%" style="stop-color: #458588; stop-opacity:1"/>
  </linearGradient>
  <linearGradient id="cyberneon" x1="0%" x2="0%" y1="0%" y2="100%">
    <stop offset="0" style="stop-color:#83a598; stop-opacity:1"/>
    <stop offset="1" style="stop-color:#b16286; stop-opacity:1"/>
  </linearGradient>
 </defs>
 <path style="fill:currentColor" class="ColorScheme-Text" d="M 8 1.231 C 7.431 1.231 6.936 1.621 6.804 2.174 C 6.671 2.728 6.935 3.3 7.442 3.558 L 4.923 8.615 L 2.173 6.327 C 2.359 6.106 2.461 5.827 2.462 5.538 C 2.462 4.859 1.911 4.308 1.231 4.308 C 0.551 4.308 0 4.859 0 5.538 C 0 6.218 0.551 6.769 1.231 6.769 C 1.315 6.769 1.401 6.767 1.481 6.75 L 2.519 11.692 L 13.481 11.692 L 14.519 6.75 C 14.599 6.767 14.686 6.769 14.769 6.769 C 15.449 6.769 16 6.218 16 5.538 C 16 4.859 15.449 4.308 14.769 4.308 C 14.089 4.308 13.538 4.859 13.538 5.538 C 13.539 5.827 13.641 6.106 13.827 6.327 L 11.077 8.615 L 8.558 3.558 C 9.065 3.3 9.329 2.728 9.196 2.174 C 9.064 1.621 8.569 1.231 8 1.231 Z M 2.462 12.923 L 2.462 13.846 C 2.462 14.356 2.875 14.769 3.385 14.769 L 12.615 14.769 C 13.125 14.769 13.538 14.356 13.538 13.846 L 13.538 12.923 L 2.462 12.923 Z"/>
</svg>
